X:1
T:When the Roll Is Called Up Yonder
T:When the Roll Is Called Up Yonder
T:James Milton Black
T:James Milton Black, 1889
T:Public Domain Courtesy of the Cyber Hymnal™
T:Public Domain Courtesy of the Cyber Hymnal™
C:James Milton Black
Z:Public Domain
Z:Courtesy of the Cyber Hymnal™
%%score 1 ( 2 3 )
L:1/8
Q:1/4=105
M:4/4
K:Ab
V:1 treble 
V:2 bass 
V:3 bass 
V:1
 [CA]>[DB] | [Ec]>[Ec] [Ec]>[Ec] [Ec]>[EB] [EA]>[EA] | [DB]>[DA] [DA]>[DF] [CE]2 [CA]>[DB] | %3
w: 1.~When the|trump- et of the Lord shall sound, and|time shall be no more, And the|
w: 2.~On that|bright and cloud- less morn- ing when the|dead in Christ shall rise, And the|
w: 3.~Let us|la- bor for the Mas- ter from the|dawn till set- ting sun, Let us|
 [Ec]>[Ec] [Ec]>[Ec] [Ec]>[Ec] [EB]>[=DA] | [EB]6 [CA]>[DB] | %5
w: morn- ing breaks, e- ter- nal, bright and|fair; When the|
w: glor- y of His res- ur- rect- ion|share; When His|
w: talk of all His wond- rous love and|care; Then when|
 [Ec]>[Ec] [Ec]>[Ec] [Ec]>[EB] [EA]>[EA] | [DB]>[DA] [DA]>[DF] [CE]2 [CA]>[DB] | %7
w: saved of earth shall ga- ther o- ver|on the o- ther shore, And the|
w: chos- en ones shall ga- ther to their|home be- yond the skies, And the|
w: all of life is o- ver, and our|work on earth is done, And the|
 [Ec]>[Ec] [Ec]>[CA] [DB]>[DB] [DB]>[DG] | [CA]6 ||"^Refrain" [Ac]>[Bd] [ce]4- [ce]>[Bd] | %10
w: roll is called up yon- der, I’ll be|there.|When the roll * is|
w: roll is called up yon- der, I’ll be|there.||
w: roll is called up yon- der, I’ll be|there.||
 [Ac]>[Bd] [ce]4 [Ac]2 | [Ac]>[Ac] [Bd]4- [Bd]>[Ac] | [GB]>[Ac] [Bd]4 [GB]2 | %13
w: called up yon- der,|When the roll * is|called up yon- der,|
w: |||
w: |||
 [Ac]>[Bd] [ce]4- [ce]>[Ac] | [EB]>[EA] [FA]4 [Fd]2 | [Fd]>[FB] [Ec]>[Ec] [Ec]>[CA] [DB]>[DB] | %16
w: When the roll * is|called up yon- der,|When the roll is called up yon- der,|
w: |||
w: |||
 [DB]>[DG] [CA]6 |] %17
w: I’ll be there.|
w: |
w: |
V:2
 [A,,A,]>[A,,A,] | [A,,A,]>[A,,A,] [A,,A,]>[A,,A,] [A,,A,]>[B,,G,] [C,A,]>[C,A,] | %2
w: ~ ~|~ ~ ~ ~ ~ ~ ~ ~|
 [D,F,]>[D,F,] [D,F,]>[D,A,] [A,,A,]2 [A,,A,]>[A,,A,] | %3
w: ~ ~ ~ ~ ~ ~ ~|
 [A,,A,]>[A,,A,] [A,,A,]>[A,,A,] A,>A, [G,B,]>[F,B,] | [E,G,]6 [A,,A,]>[A,,A,] | %5
w: ~ ~ ~ ~ ~ ~ ~ ~|~ ~ ~|
 [A,,A,]>[A,,A,] [A,,A,]>[A,,A,] [A,,A,]>[B,,G,] [C,A,]>[C,A,] | %6
w: ~ ~ ~ ~ ~ ~ ~ ~|
 [D,F,]>[D,F,] [D,F,]>[D,A,] [A,,A,]2 [A,,A,]>[A,,A,] | %7
w: ~ ~ ~ ~ ~ ~ ~|
 [E,A,]>[E,A,] [E,A,]>[E,A,] [E,G,]>[E,G,] [E,G,]>[E,B,] | [A,,A,]6 || %9
w: ~ ~ ~ ~ ~ ~ ~ ~|~|
 z2 z2 [A,E]>[A,E] [A,E]>[A,E] | [A,E]>[A,E] [A,E]>[A,E] [A,E]>[A,E] [A,E]2 | %11
w: When the roll is|called up yon- der, I’ll be there.|
 z2 z2 [E,E]>[E,E] [E,E]>[E,E] | [E,E]>[E,E] [E,E]>[E,E] [E,E]>[E,E] [E,E]2 | %13
w: When the roll is|called up yon- der, I’ll be there.|
 z2 z2 [A,E]>[A,E] [A,E]>[A,E] | [A,D]>[A,C] [D,D]4 [D,A,]2 | %15
w: When the roll is|called up yon- der,|
 [D,A,]>[D,A,] [E,A,]>[E,A,] [E,A,]>[E,A,] [E,A,]>[E,A,] | [E,A,]>[E,B,] [A,,A,]6 |] %17
w: When the roll is called up yon- der,|I’ll be there.|
V:3
 x2 | x8 | x8 | x4 A,3/2 x5/2 | x8 | x8 | x8 | x8 | x6 || x8 | x8 | x8 | x8 | x8 | x8 | x8 | x8 |] %17

